icons/breezeDark/actions/16/edit-copy.svg

<svg viewBox="0 0 16 16" xmlns="http://www.w3.org/2000/svg"><path d="m3 2v11h3v1h5l3-3v-7h-1v-2h-9.2148438zm1 1h8v1h-6v8h-2zm3 2h6v5h-3v3h-3z" fill="#c0c0c0"/></svg>

<svg xmlns="http://www.w3.org/2000/svg" viewBox="0 0 16 16">
  <defs id="defs3051">
    <style type="text/css" id="current-color-scheme">
      .ColorScheme-Text {
        color:#c0c0c0;
      }
      </style>
  </defs>
 <path style="fill:currentColor;fill-opacity:1;stroke:none" 
     d="M 3 2 L 3 13 L 6 13 L 6 14 L 11 14 L 14 11 L 14 4 L 13 4 L 13 2 L 3.7851562 2 L 3 2 z M 4 3 L 12 3 L 12 4 L 6 4 L 6 12 L 4 12 L 4 3 z M 7 5 L 13 5 L 13 10 L 10 10 L 10 13 L 7 13 L 7 5 z "
     class="ColorScheme-Text"
     />
</svg>
